source/img/icons/telegram.svg

<svg width="21" height="18" viewBox="0 0 21 18" fill="none" xmlns="http://www.w3.org/2000/svg">
<path fill-rule="evenodd" clip-rule="evenodd" d="M19.9608 0.152905C20.1393 0.302216 20.2255 0.534898 20.1872 0.764481L17.5611 16.5214C17.5244 16.7411 17.3789 16.9273 17.1745 17.0159C16.97 17.1045 16.7346 17.0833 16.5493 16.9597L8.67082 11.7074C8.51771 11.6054 8.41447 11.4437 8.38624 11.2619C8.358 11.08 8.40738 10.8947 8.52233 10.751L11.133 7.48773L6.77303 10.3944C6.577 10.525 6.32597 10.5407 6.11524 10.4353L0.862931 7.80915C0.627693 7.69153 0.485347 7.44488 0.5012 7.18235C0.517052 6.91983 0.688044 6.6921 0.935726 6.60364L19.3188 0.0382579C19.538 -0.0400244 19.7822 0.00359465 19.9608 0.152905ZM2.82626 7.32275L6.36168 9.09046L13.9231 4.0495C14.1925 3.86994 14.5525 3.91349 14.7712 4.1521C14.99 4.3907 15.0022 4.75314 14.8 5.00591L9.99502 11.0121L16.4328 15.3039L18.7083 1.65058L2.82626 7.32275Z" fill="#666666"/>
</svg>

<svg width="21" height="18" fill="none" xmlns="http://www.w3.org/2000/svg"><path fill-rule="evenodd" clip-rule="evenodd" d="M19.96.153c.18.15.265.382.227.611l-2.626 15.757a.657.657 0 0 1-1.012.439l-7.878-5.253a.656.656 0 0 1-.149-.956l2.611-3.263-4.36 2.906a.657.657 0 0 1-.658.041L.863 7.81a.657.657 0 0 1 .073-1.205L19.319.038a.657.657 0 0 1 .642.115ZM2.827 7.323 6.362 9.09l7.561-5.04a.656.656 0 0 1 .877.956l-4.805 6.006 6.438 4.292L18.708 1.65 2.826 7.323Z" fill="#666"/></svg>
